X: 19574
T: James McMahon's
R: jig
M: 6/8
K: Gmajor
|:B2G AGE|DGE DB,D|EDB, G,A,B,|DEG AGA|
BAG AGE|DGE DB,D|EDB, G,A,B,|DGF G3:|
BAB d3|edB AGA|BAG AGE|DEG AGA|
BAB d3|edB AGA|B2G AGE|DGF G3:|

